X:83
T:Thick And Thin
C:Kate Abrams
S:Bernie Waugh
R:Reel
M:4/4
L:1/8
K:D
|:\
"D"D2FD EFDE|"Bm"FB2AF2d2|"F#m"cdcA FAcA|"Bm"BcBA F4|
"D"D2FD EFDE|"Bm"FB2AF2d2|1"F#m"cdcA FAcA|"Bm"[F2B2]z2[F2B2]z2:|2\
"A"A2cA BcAB|"D"df2e d4||
|:\
"A"A2cA BcAB|"D"df2e d4|"A"ceBe Aece|"D"df2e d4|
"A"ABcA BcAB|"D"df2e "Bm"d4|"G"GABG "D"FGAd|1"A"cABc"D"d4:|2\
"A"cAGE "D"D4|]

